icons/outline/section.svg

<!--
tags: [html, element, layout, divide, position, website]
category: Design
version: "1.39"
unicode: "eed5"
-->
<svg
  xmlns="http://www.w3.org/2000/svg"
  width="24"
  height="24"
  viewBox="0 0 24 24"
  fill="none"
  stroke="currentColor"
  stroke-width="2"
  stroke-linecap="round"
  stroke-linejoin="round"
>
  <path d="M20 20h.01m-16.01 0h.01m3.99 0h.01m3.99 0h.01m3.99 0h.01m3.99 -16h.01m-16.01 0h.01m3.99 0h.01m3.99 0h.01m3.99 0l0 .01m-12 3.99m0 1a1 1 0 0 1 1 -1h14a1 1 0 0 1 1 1v6a1 1 0 0 1 -1 1h-14a1 1 0 0 1 -1 -1z" />
</svg>

<!--
tags: [html, element, layout, divide, position, website]
category: Design
version: "1.39"
unicode: "eed5"
-->
<svg
  xmlns="http://www.w3.org/2000/svg"
  width="24"
  height="24"
  viewBox="0 0 24 24"
  fill="none"
  stroke="currentColor"
  stroke-width="2"
  stroke-linecap="round"
  stroke-linejoin="round"
>
    <path d="M20 20h.01M4 20h.01M8 20h.01M12 20h.01M16 20h.01M20 4h.01M4 4h.01M8 4h.01M12 4h.01M16 4l0 .01M4 8m0 1a1 1 0 0 1 1 -1h14a1 1 0 0 1 1 1v6a1 1 0 0 1 -1 1h-14a1 1 0 0 1 -1 -1z" />
</svg>
